src/images/GeneFit/Watch4.svg

<svg fill="none" height="100" viewBox="0 0 101 100" width="101" xmlns="http://www.w3.org/2000/svg"><path d="m95.95 44.8716h-19.897c-.3519-.0485-.7086-.0485-1.0605 0h-.8585c-.2639.1529-.517.3241-.7575.5126-.2812.1884-.551.3938-.808.615-.1686.2096-.3206.4324-.4545.6663-.2314.3229-.4342.6659-.606 1.0251l-8.08 22.6029-21.0585-57.9168c-.3538-.9894-.9993-1.8443-1.8486-2.44846-.8493-.60415-1.8613-.92824-2.8984-.92824s-2.0491.32409-2.8984.92824c-.8493.60416-1.4948 1.45906-1.8486 2.44846l-11.6655 32.4949h-16.16c-1.33934 0-2.62383.54-3.57089 1.5012-.947058.9612-1.47911 2.2649-1.47911 3.6242s.532052 2.663 1.47911 3.6242c.94706.9612 2.23155 1.5012 3.57089 1.5012h21.715c.287-.1403.558-.3122.808-.5126.2812-.1884.551-.3938.808-.615l.4545-.6663c.2407-.3166.4441-.6606.606-1.0251l8.181-23.2179 21.008 58.5318c.3529.9905.9979 1.8467 1.8473 2.452s1.8619.9302 2.8997.9307c1.0378-.0005 2.0504-.3254 2.8997-.9307.8494-.6053 1.4944-1.4615 1.8473-2.452l11.615-32.4949h16.2105c1.3393 0 2.6238-.54 3.5709-1.5012s1.4791-2.2649 1.4791-3.6242-.532-2.663-1.4791-3.6242-2.2316-1.5012-3.5709-1.5012z" fill="#ec8539"/></svg>

<svg width="101" height="100" viewBox="0 0 101 100" fill="none" xmlns="http://www.w3.org/2000/svg">
<path d="M95.95 44.8716H76.053C75.7011 44.8231 75.3444 44.8231 74.9925 44.8716H74.134C73.8701 45.0245 73.617 45.1957 73.3765 45.3842C73.0953 45.5726 72.8255 45.778 72.5685 45.9992C72.3999 46.2088 72.2479 46.4316 72.114 46.6655C71.8826 46.9884 71.6798 47.3314 71.508 47.6906L63.428 70.2935L42.3695 12.3767C42.0157 11.3873 41.3702 10.5324 40.5209 9.92824C39.6716 9.32409 38.6596 9 37.6225 9C36.5854 9 35.5734 9.32409 34.7241 9.92824C33.8748 10.5324 33.2293 11.3873 32.8755 12.3767L21.21 44.8716H5.05C3.71066 44.8716 2.42617 45.4116 1.47911 46.3728C0.532052 47.334 0 48.6377 0 49.997C0 51.3563 0.532052 52.66 1.47911 53.6212C2.42617 54.5824 3.71066 55.1224 5.05 55.1224H26.765C27.052 54.9821 27.323 54.8102 27.573 54.6098C27.8542 54.4214 28.124 54.216 28.381 53.9948L28.8355 53.3285C29.0762 53.0119 29.2796 52.6679 29.4415 52.3034L37.6225 29.0855L58.6305 87.6173C58.9834 88.6078 59.6284 89.464 60.4778 90.0693C61.3272 90.6746 62.3397 90.9995 63.3775 91C64.4153 90.9995 65.4279 90.6746 66.2772 90.0693C67.1266 89.464 67.7716 88.6078 68.1245 87.6173L79.7395 55.1224H95.95C97.2893 55.1224 98.5738 54.5824 99.5209 53.6212C100.468 52.66 101 51.3563 101 49.997C101 48.6377 100.468 47.334 99.5209 46.3728C98.5738 45.4116 97.2893 44.8716 95.95 44.8716Z" fill="#EC8539"/>
</svg>
